X:1
T:Title
%%score { ( 1 2 ) | ( 3 4 ) }
L:1/8
Q:1/4=100
M:4/4
K:G
V:1 treble nm="Midi_20"
V:2 treble 
V:3 bass 
V:4 bass 
V:1
"^Upon the snow-clad earth" D2 | G2 G2 G2 G2 | (GF) (GA) B2 G2 | c2 B2 A2{x} G2 | %4
w: Up-|on the snow- clad|earth * with\- * out, The|stars are shin- *|
w: ~Twas|in the days when|far * and * wide Men|owned the Cae- *|
 F6"^Sir Arthur Sullivan\n(1842-1900)" F2 |[M:4/4] A2 A2 A2 F2 | (EF) (GE) F2 A2 | A2 (GF) E2 E2 | %8
w: bright, As||||
w: sway, That||||
 D6 D2 | d3 c B2 B2 | (BA) (GF) G2 E2 | c3 B A2 G2 | F6 (GF) | E2 A2 F2 (BA) | G2 c2 A2 (dc) | %15
w: |on this night long|years * a\- * go The|Bless- ed babe was|born, The *|* of old were *|* to keep Their *|
w: |from tiieir home in|Na- za- reth's * vale, O-|be- dient to the|same, With *|* ry his es\- *|* ed wife, The *|
 (BA) B2 A2 A2 | G6 |] %17
w: vi\- * * * til|morn.|
w: saint\- * * * seph|came.|
V:2
 D2 | D2 E2 D2 E2 | D3 F G2 D2 | D2 D2 E2 (B,^C) | D6 D2 |[M:4/4] (EF) ((GE)) F2 D2 | %6
w: |||* * * ing *||Heav'n * had * hung out|
w: |||* * * sar's *||his * de\- * cree went|
 (^CD) (EC) D2 F2 | F2 (ED) D2 ^C2 | D6 D2 | D3 D D2 D2 | E3 E E2 E2 | C3 D E2 E2 | D6 D2 | %13
w: all * her * lamps To|hail the * fes- tal|night; For|||||
w: forth, * that * all A|cer- tain * tax should|pay. Then|||||
 E2 E2 F2 F2 | G2 G2 A2 A2 | G2 G2 G2 F2 | G6 |] %17
w: ||||
w: ||||
V:3
 D,2 | B,2 C2 B,2 C2 | D3 C B,2 B,2 | A,2 G,2 E,2 G,2 | A,6 A,2 |[M:4/4] A,2 A,2 A,2 A,2 | %6
w: ||||||
w: ||||||
 A,2 A,2 A,2 A,2 | B,3 A, (G,F,) G,2 | F,6 F,2 | F,3 F, F,2 F,2 | G,3 A, B,2 G,2 | E,3 E, E,2 A,2 | %12
w: ||||||
w: ||||||
 A,6 G,2 | %13
w: |
w: |
"^A stable and a manger, where\nThe oxen lowed around\nWas all the shelter Bethlehem gave,\nThe welcome that they found!\nYet blessed among women was\nThat holy mother maid\nWho on that night her first-born Son\nThere in the manger laid.\n\nThe King of kings, and Lord of lords,\nE'en from His very birth,\nHad not a place to lay His head,\nAn outcast in the earth:\nAnd yet we know that little Babe\nWas tender to the touch,\nAnd weak as other infants are;\nHe felt the cold as much! \n""^3.""^4." (G,F,) E,2 A,2 F,2 | %14
w: saints * * * *|
w: Ma\- * * * *|
 (B,A,) G,2 C2"^In swaddling bands she wrapped Him round,\nAnd smoothed His couch of straw,\nWhile unseen Angels watched beside,\nIn mute, adoring awe.\nHow softly did they fold their wings\nBeneath that star-lit shed,\nWhile eastern sages from afar\nThe new-born radiance led! \n\nAnd thus it is, from age to age,\nThat as this night comes round,\nSo sweetly, underneath the moon,\nThe Christmas carols sound.\nBecause to us a Child is born,\nOur Brother and our King,\nAngels in Heaven, and we on earth,\nOur joyful anthems sing. \n""^5.""^6." A,2 | %15
w: wont * * * *|
w: pous\- * * * *|
 D2 D2 (CB,) C2 | B,6 |] %17
w: * * un\- * *||
w: * * Jo\- * *||
V:4
 D,2 | G,2 G,2 G,2 C2 | B,3 A, G,2 G,2 | F,2 G,2 C,2 E,2 | D,6 D,2 |[M:4/4] ^C,2 A,,2 D,2 F,2 | %6
w: ||||||
w: ||||||
 A,2 A,,2 D,2 F,,2 | G,,2 G,,2 G,,2 A,,2 | D,6 D,2 | B,,3 B,, B,,2 B,,2 | E,3 E, E,2 E,2 | %11
w: |||||
w: |||||
 A,,3 B,, C,2 ^C,2 | D,6 B,,2 | C,2 C,2 D,2 D,2 | E,2 E,2 F,2 F,2 | G,2 (B,,C,) D,2 D,2 | G,,6 |] %17
w: ||||* gil * * *||
w: ||||* ly * * *||

